web/www/src/assets/img/instellingen/profiel.svg

<svg fill="none" height="28" viewBox="0 0 28 28" width="28" xmlns="http://www.w3.org/2000/svg"><path clip-rule="evenodd" d="m2.28718 27.4462s-2.28718 0-2.28718-2.2872 2.28718-9.1487 13.7231-9.1487c11.4359 0 13.7231 6.8615 13.7231 9.1487s-2.2872 2.2872-2.2872 2.2872zm11.43592-13.7231c1.8198 0 3.565-.7229 4.8518-2.0097s2.0097-3.03207 2.0097-4.85186-.7229-3.56505-2.0097-4.85184-3.032-2.0097-4.8518-2.0097-3.5651.72291-4.85186 2.0097c-1.28679 1.28679-2.0097 3.03205-2.0097 4.85184s.72291 3.56506 2.0097 4.85186c1.28676 1.2868 3.03206 2.0097 4.85186 2.0097z" fill="#000" fill-rule="evenodd"/></svg>

<svg width="28" height="28" viewBox="0 0 28 28" fill="none" xmlns="http://www.w3.org/2000/svg">
<path fill-rule="evenodd" clip-rule="evenodd" d="M2.28718 27.4462C2.28718 27.4462 0 27.4462 0 25.159C0 22.8718 2.28718 16.0103 13.7231 16.0103C25.159 16.0103 27.4462 22.8718 27.4462 25.159C27.4462 27.4462 25.159 27.4462 25.159 27.4462H2.28718ZM13.7231 13.7231C15.5429 13.7231 17.2881 13.0002 18.5749 11.7134C19.8617 10.4266 20.5846 8.68133 20.5846 6.86154C20.5846 5.04175 19.8617 3.29649 18.5749 2.0097C17.2881 0.72291 15.5429 0 13.7231 0C11.9033 0 10.158 0.72291 8.87124 2.0097C7.58445 3.29649 6.86154 5.04175 6.86154 6.86154C6.86154 8.68133 7.58445 10.4266 8.87124 11.7134C10.158 13.0002 11.9033 13.7231 13.7231 13.7231Z" fill="black"/>
</svg>
